src/topics/icons/visual_website_optimizer.svg

<svg height="89" preserveAspectRatio="xMidYMid" viewBox="0 0 256 89" width="256" xmlns="http://www.w3.org/2000/svg"><path d="m210.82353 0c24.950276 0 45.17647 19.7187264 45.17647 44.0430108 0 24.3242843-20.226194 44.0430107-45.17647 44.0430107-21.014752 0-38.678188-13.9886771-43.727611-32.9357309l4.00474 2.5354579 2.077109-3.1182187c4.686597 15.9627542 19.766671 27.6460903 37.645762 27.6460903 21.623573 0 39.15294-17.0895627 39.15294-38.1706093 0-21.0810467-17.529367-38.17060937-39.15294-38.17060937-1.850676 0-3.671362.12518049-5.453635.36733008l3.786296-5.68410186-.777482-.49223439c.809468-.04208452 1.624591-.06339526 2.444821-.06339526z" fill="#bf3078"/><path d="m165.647059 0h45.176471l-60.235295 88.0860215-22.588235-33.0322581-22.588235 33.0322581-22.8428234-33.4045587 3.5722218-5.3627278 19.2706016 28.1806642 17.576356-25.703058 5.011879-7.3292 5.011879 7.3292 17.576356 25.703058 48.980227-71.62699777h-33.921403-50.565412l3.911726-5.87240143z" fill="#802050"/><path d="m60.2352941 88.0860215-60.2352941-88.0860215h120.470589zm0-10.5866223 48.9802269-71.62699777h-97.9604534z" fill="#26134d"/></svg>

<?xml version="1.0" encoding="UTF-8" standalone="no"?>
<svg width="256px" height="89px" viewBox="0 0 256 89" version="1.1" xmlns="http://www.w3.org/2000/svg" xmlns:xlink="http://www.w3.org/1999/xlink" preserveAspectRatio="xMidYMid">
	<g>
		<path d="M210.82353,0 C235.773806,0 256,19.7187264 256,44.0430108 C256,68.3672951 235.773806,88.0860215 210.82353,88.0860215 C189.808778,88.0860215 172.145342,74.0973444 167.095919,55.1502906 L171.100659,57.6857485 L173.177768,54.5675298 C177.864365,70.530284 192.944439,82.2136201 210.82353,82.2136201 C232.447103,82.2136201 249.97647,65.1240574 249.97647,44.0430108 C249.97647,22.9619641 232.447103,5.87240143 210.82353,5.87240143 C208.972854,5.87240143 207.152168,5.99758192 205.369895,6.23973151 L209.156191,0.555629647 L208.378709,0.0633952581 C209.188177,0.0213107363 210.0033,0 210.82353,0 L210.82353,0 Z" fill="#BF3078"></path>
		<path d="M165.647059,7.10542736e-15 L210.82353,7.10542736e-15 L150.588235,88.0860215 L128,55.0537634 L105.411765,88.0860215 L82.5689416,54.6814628 L86.1411634,49.318735 L105.411765,77.4993992 L122.988121,51.7963412 L128,44.4671412 L133.011879,51.7963412 L150.588235,77.4993992 L199.568462,5.87240143 L165.647059,5.87240143 L115.081647,5.87240143 L118.993373,1.54506117e-14 L165.647059,7.10542736e-15 L165.647059,7.10542736e-15 Z" fill="#802050"></path>
		<path d="M60.2352941,88.0860215 L0,0 L120.470589,8.34518436e-15 L60.2352941,88.0860215 L60.2352941,88.0860215 Z M60.2352941,77.4993992 L109.215521,5.87240143 L11.2550676,5.87240143 L60.2352941,77.4993992 L60.2352941,77.4993992 Z" fill="#26134D"></path>
	</g>
</svg>
